symbols/web/emoji_objects/materialsymbolsoutlined/emoji_objects_wght500fill1_48px.svg

<svg xmlns="http://www.w3.org/2000/svg" height="48" width="48"><path d="M24 44.3q-1.35 0-2.45-.65t-1.4-1.8h-.7q-1.3-.05-2.225-1.025-.925-.975-.925-2.275v-7q-3.3-2.2-5.2-5.575Q9.2 22.6 9.2 18.5q0-6.15 4.325-10.475Q17.85 3.7 24 3.7q6.15 0 10.475 4.325Q38.8 12.35 38.8 18.5q0 4.1-1.9 7.475t-5.2 5.575v7q0 1.3-.925 2.275-.925.975-2.225 1.025h-.7q-.3 1.15-1.4 1.8-1.1.65-2.45.65Zm-4.3-9.95h8.6v-2h-8.6Zm0 4.2h8.6v-2.2h-8.6Zm5.5-9.3V22.5l4.65-4.6-1.65-1.65-4.2 4.2-4.2-4.2-1.65 1.65 4.65 4.6v6.75Z"/></svg>

<svg xmlns="http://www.w3.org/2000/svg" height="48" width="48"><path d="M24 44.3Q22.65 44.3 21.55 43.65Q20.45 43 20.15 41.85H19.45Q18.15 41.8 17.225 40.825Q16.3 39.85 16.3 38.55V31.55Q13 29.35 11.1 25.975Q9.2 22.6 9.2 18.5Q9.2 12.35 13.525 8.025Q17.85 3.7 24 3.7Q30.15 3.7 34.475 8.025Q38.8 12.35 38.8 18.5Q38.8 22.6 36.9 25.975Q35 29.35 31.7 31.55V38.55Q31.7 39.85 30.775 40.825Q29.85 41.8 28.55 41.85H27.85Q27.55 43 26.45 43.65Q25.35 44.3 24 44.3ZM19.7 34.35H28.3V32.35H19.7ZM19.7 38.55H28.3V36.35H19.7ZM25.2 29.25V22.5L29.85 17.9L28.2 16.25L24 20.45L19.8 16.25L18.15 17.9L22.8 22.5V29.25Z"/></svg>
